X:1
T:Jenny Lind
N:from the playing of Sally Sloane
Z:Ian Hayden 2017
L:1/4
M:4/4
K:Dmaj
|:FA GB| Af f/2e/2f|Ge e/2d/2e|Fd d/2c/2d|
|FA GB| Af f/2e/2f|Ge e>c|ddd2:|
|:dB Bd/2B/2|AF F>F|GE E>E|FDD2|
|dB Bd/2B/2|AF F2|GE E2|FDD2:|
